X:1
T:Title
%%score { 1 | 2 }
L:1/8
M:4/4
K:C
V:1 treble nm="Grand Piano"
V:2 bass 
V:1
 z4 z2 z[Q:1/4=100] [EG] | [Ec]2 [Ec][Ec] c2 BA | [FA][EG][EG][EG] [EG]3 [CEG] | %3
 A c2 A [FA] [EG]2 [EG] |[M:9/8] [Gc]2 [FB] [Ec] [Gd]2- [Gd][Ge][Fd] | %5
[M:4/4] [Ec]2 [Ec][Ec] c2 BA |[M:7/8] [FA][EG][EG] [EG] [EG]3 |[M:1/8] [EG] | %8
[M:4/4] A c2 A [FA] [EG]2 [EG] |[M:7/8] G2 A B [Ec]3 |[M:1/8] E |[M:4/4] E E2 E E E2 [DF] | %12
 [EG]2 [EG][EG] [EG]3 [EG] | A c2 A [FA][EG] [EG]2 | %14
[M:9/8][K:bass] [G,CE]2 [G,B,D] [E,C] [G,B,D]2- [G,B,D][K:treble][CE][DF] | %15
[M:4/4] [EG]2 [EG][EG] [EG] [EG]2 [EG] | ABc[Ad] [^Ge]3 [Gd] | [Ac]2 dc B A2 A | %18
[M:17/16] G-<GAB[Ec]/-[Ec]/-[Ec]/-[Ec]/-[Ec]/-[Ec]-<[Ec] |] %19
V:2
 z4 z2 z [C,C] | [C,G,]2 [C,G,][C,G,] [F,A,F]2 [F,CF][F,CF] | [C,C]2 [C,C][C,C] [C,C]3 B,, | %3
 [F,CF] [F,A,F]2 [F,CF] [C,C] [C,C]2 [C,C] | %4
[M:9/8] [E,G,]2 [D,G,] [C,G,] [G,B,]2- [G,B,][G,C][G,B,] | %5
[M:4/4] [C,C]2 [C,G,][C,G,] [F,A,F]2 [F,CF][F,CF] |[M:7/8] [C,C]2 [C,C] [C,C] [C,C]3 | %7
[M:1/8] [C,C] |[M:4/4] [F,CF] [F,A,F]2 [F,CF] [C,C] [C,C]2 [C,C] | %9
[M:7/8][K:treble] [G,CE]2 [G,F] [G,F][K:bass] [C,G,]3 |[M:1/8] [C,G,C] | %11
[M:4/4] [C,G,C] [C,G,C]2 [C,G,C] [C,G,C] [C,G,C]2 [C,G,] | [C,C]2 [C,C][C,C] [C,C]3 [C,C] | %13
 [F,CF] [F,A,F]2 [F,CF] [C,C][C,C] [C,C]2 |[M:9/8] C,2 G,, A,, G,,2- G,, [C,G,]2 | %15
[M:4/4] [C,C]2 [C,C][C,C] [C,C] [C,C]2 [C,C] | [F,CF]2 [F,A,F][F,A,] [E,B,]3 [E,B,] | %17
 [F,A,]2[K:treble] [F,A,F][F,A,F] [F,CF] [F,CF]2 [F,CF] | %18
[M:17/16] [G,CE]-<[G,CE][G,F][G,F][K:bass][C,G,]/-[C,G,]/-[C,G,]/-[C,G,]/-[C,G,]/-[C,G,]-<[C,G,] |] %19

